X:1
T:Liverpool Lullaby
M:4/4
L:1/8
K:Bb
 G3/2 G/2 A3/2 B/2c/2 A3/2 G2| B3/2 c/2 d3/2 D/2 B3/2 c/2 d2| G/2 G3/2 A3/2 B/2 c3/2 A/2 GG|\
 B/2 c3/2 d3/2 D/2D/2 G3/2 z2| e3/2 e/2 d3/2 d/2 dB G- G/2G/2| B3/2 c/2 d3/2 D/2 B3/2 c/2 d d/2d/2|\
 e/2 e3/2 d c/2c/2 dB G3/2 G/2| B/2 c3/2 d D/2D/2 G3 z|
